X: 152
T: Miss Charlotte Elliott's Reel
C: William Shepherd (17??-1812)
R: reel
B: William Shepherd "2nd Collection" 1800 p.15 #2
F: http://imslp.org/wiki/File:PMLP73094-Shepherd_Collections_HMT.pdf
Z: 2012 John Chambers <jc:trillian.mit.edu>
M: C
L: 1/8
K: C
f | e>cG>c EcGc | e>cG>c Bd-Tdf \
  | e>cG>c EcGc | fdBg ec-Tc ||
f | e>cG>c EcGc | e>cG>c Bd-Tdf \
  | e>cA>c EcGc | f>dBg ecc |]
f | e>cg>c a>cg>c | e>cG>c B<d-d>f \
  | e>cg>c a>cg>c | G>c (B/c/d) ec-Tc ||
f | e>cg>c a>cg>c | e>cG>c B<d-d>f \
  | e>cA>c G>cE>c | f>dB>g ecTc |]
